icons/server-fill.svg

<svg viewBox="0 0 24 24" fill="currentColor" xmlns="http://www.w3.org/2000/svg"><path d="M4 3H20C20.5523 3 21 3.44772 21 4V11H3V4C3 3.44772 3.44772 3 4 3ZM3 13H21V20C21 20.5523 20.5523 21 20 21H4C3.44772 21 3 20.5523 3 20V13ZM7 16V18H10V16H7ZM7 6V8H10V6H7Z"/></svg>

<svg xmlns="http://www.w3.org/2000/svg" viewBox="0 0 24 24">
    <g>
        <path fill="none" d="M0 0h24v24H0z"/>
        <path d="M4 3h16a1 1 0 0 1 1 1v7H3V4a1 1 0 0 1 1-1zM3 13h18v7a1 1 0 0 1-1 1H4a1 1 0 0 1-1-1v-7zm4 3v2h3v-2H7zM7 6v2h3V6H7z"/>
    </g>
</svg>
